jekyll/_src/images/embed/i-twitter.svg

<?xml version="1.0" encoding="UTF-8" standalone="no"?>
<svg width="36px" height="36px" viewBox="0 0 36 36" version="1.1" xmlns="http://www.w3.org/2000/svg" xmlns:xlink="http://www.w3.org/1999/xlink" xmlns:sketch="http://www.bohemiancoding.com/sketch/ns">
    <title>i-twitter</title>
    <description>Created with Sketch (http://www.bohemiancoding.com/sketch)</description>
    <defs></defs>
    <g id="Page-1" stroke="none" stroke-width="1" fill="none" fill-rule="evenodd" sketch:type="MSPage">
        <circle id="Oval" stroke-opacity="0.658691406" stroke="#4BC6DF" sketch:type="MSShapeGroup" cx="18" cy="18" r="17"></circle>
        <path d="M27.1410588,14.5257143 L27.1572941,15.1197143 C27.1572941,21.1882857 22.3002353,28.1851429 13.4114118,28.1851429 C10.6811765,28.1851429 8.14441176,27.4252857 6,26.1202857 C6.37747059,26.1652857 6.76305882,26.1845714 7.15135294,26.1845714 C9.41888235,26.1845714 11.4997059,25.4504286 13.153,24.2161429 C11.0397059,24.184 9.25517647,22.8558571 8.645,21.0352857 C8.93723529,21.088 9.24435294,21.115 9.55147059,21.115 C9.99388235,21.115 10.4214118,21.0597143 10.8232353,20.9581429 C8.60847059,20.5364286 6.94705882,18.6785714 6.94705882,16.4504286 L6.94705882,16.3951429 C7.60052941,16.7384286 8.34870588,16.9454286 9.13476471,16.9685714 C7.84135294,16.147 6.98358824,14.7404286 6.98358824,13.1474286 C6.98358824,12.3065714 7.22711765,11.5171429 7.63841176,10.837 C10.0236471,13.6167143 13.5818824,15.4424286 17.6001176,15.6378571 C17.5175882,15.301 17.477,14.9487143 17.477,14.5912857 C17.477,12.0558571 19.6349412,10 22.3110588,10 C23.6991765,10 24.9574118,10.558 25.8395294,11.4515714 C26.9381176,11.2445714 27.9731176,10.8627143 28.908,10.3355714 C28.5467647,11.4078571 27.781,12.3091429 26.7838824,12.8774286 C27.7634118,12.7681429 28.6928824,12.5187143 29.5587647,12.1535714 C28.9052941,13.0702857 28.0867647,13.8802857 27.1410588,14.5257143 L27.1410588,14.5257143 Z" id="Shape" fill="#4BC6DF" sketch:type="MSShapeGroup"></path>
    </g>
</svg>

<svg width="36" height="36" viewBox="0 0 36 36" xmlns="http://www.w3.org/2000/svg">
    <g fill="none">
        <circle stroke-opacity=".66" stroke="#4BC6DF" cx="18" cy="18" r="17"/>
        <path d="M27.141 14.526l.016.594c0 6.069-4.857 13.065-13.746 13.065-2.73 0-5.267-.76-7.411-2.065.377.045.763.064 1.151.064 2.268 0 4.348-.734 6.002-1.968-2.113-.032-3.898-1.36-4.508-3.181.292.053.599.08.906.08.442 0 .87-.055 1.272-.157-2.215-.422-3.876-2.28-3.876-4.508v-.055c.653.343 1.402.55 2.188.573-1.293-.822-2.151-2.228-2.151-3.821 0-.841.244-1.63.655-2.31 2.385 2.78 5.943 4.605 9.962 4.801-.083-.337-.123-.689-.123-1.047 0-2.535 2.158-4.591 4.834-4.591 1.388 0 2.646.558 3.528 1.452 1.099-.207 2.134-.589 3.068-1.116-.361 1.072-1.127 1.974-2.124 2.542.98-.109 1.909-.359 2.775-.724-.653.917-1.472 1.727-2.418 2.372z" fill="#4BC6DF"/>
    </g>
</svg>
